X:23
T:Hike in the Snow
M:6/8
L:1/8
C:Taz Tarry
S:Copyright B.Tarry 19th. December 1999
Q:3/8=130
K:D
|:dfe d2B|A2 F A3|dfe d2B|B3 A3|
dfe d2B|A2 F A3|ABc e2 c|d3 d3:|
|:AFA BGB|AFA A3|FAc e2c|B3 A3|
AFA BGB|AFA A3|Fec B2c|e3 d3:|

